icons/pull-request-locked-16.svg

<svg width="16" height="16" viewBox="0 0 16 16" fill="none" xmlns="http://www.w3.org/2000/svg">
<path fill-rule="evenodd" clip-rule="evenodd" d="M12 5.99988C13.6568 5.99988 15 7.34305 15 8.99988V10.1688C15.5911 10.4497 16 11.0519 16 11.7499V14.2499C16 15.2164 15.2165 15.9999 14.25 15.9999H9.75C8.7835 15.9999 8 15.2164 8 14.2499V11.7499C8.00002 11.0519 8.40888 10.4497 9 10.1688V8.99988C9.00003 7.34305 10.3432 5.99988 12 5.99988ZM12 7.49988C11.1716 7.49988 10.5 8.17148 10.5 8.99988V9.99988H13.5V8.99988C13.5 8.17148 12.8284 7.49988 12 7.49988Z" fill="#010409"/>
<path fill-rule="evenodd" clip-rule="evenodd" d="M3.25 0.999878C4.49248 0.999878 5.49974 2.00746 5.5 3.24988C5.49984 4.22934 4.87372 5.06307 4 5.37195V10.6288C4.87362 10.9377 5.4998 11.7705 5.5 12.7499C5.4998 13.9923 4.49252 14.9999 3.25 14.9999C2.00748 14.9999 1.0002 13.9923 1 12.7499C1.0002 11.7705 1.62638 10.9377 2.5 10.6288V5.37195C1.62628 5.06307 1.00016 4.22934 1 3.24988C1.00026 2.00746 2.00752 0.999878 3.25 0.999878ZM3.25 11.9999C2.83595 11.9999 2.50026 12.3359 2.5 12.7499C2.5002 13.1639 2.83591 13.4999 3.25 13.4999C3.66409 13.4999 3.9998 13.1639 4 12.7499C3.99974 12.3359 3.66405 11.9999 3.25 11.9999ZM3.25 2.49988C2.83595 2.49988 2.50026 2.83589 2.5 3.24988C2.5002 3.66392 2.83591 3.99988 3.25 3.99988C3.66409 3.99988 3.9998 3.66392 4 3.24988C3.99974 2.83589 3.66405 2.49988 3.25 2.49988Z" fill="#010409"/>
<path d="M9.99989 0.854432C9.99989 0.631822 9.73066 0.519569 9.57313 0.676698L7.17665 3.07318C7.0792 3.17083 7.07908 3.33011 7.17665 3.42767L9.57313 5.82318C9.73056 5.98032 9.9996 5.86883 9.99989 5.64642V3.99994V3V2.49994V0.854432Z" fill="#010409"/>
<path d="M11.9971 2.70801C11.6915 2.57485 11.3546 2.5 11 2.5H10V4H11C11.5 4 11.891 4 11.9561 4.59668C12 5 12.3137 5.27051 12.7021 5.27051C13.0906 5.27051 13.41 4.97509 13.4482 4.59668C13.4482 4.5 13.4482 4.44975 13.3818 4.24121C13.3818 4.24121 13.3405 4.11908 13.3086 4.04297C13.2414 3.88274 13.1941 3.79606 13.1 3.65C12.9887 3.47728 12.9197 3.38156 12.7725 3.23828C12.7578 3.22398 12.747 3.2143 12.7344 3.20215C12.6934 3.16259 12.651 3.1246 12.6074 3.08789C12.5972 3.07927 12.5875 3.06998 12.5771 3.06152C12.5217 3.01631 12.4646 2.97301 12.4053 2.93262C12.3938 2.92479 12.3817 2.9178 12.3701 2.91016C12.3193 2.87674 12.2672 2.84514 12.2139 2.81543C12.1983 2.80678 12.1827 2.79836 12.167 2.79004C12.1115 2.76067 12.0549 2.73322 11.9971 2.70801Z" fill="#010409"/>
</svg>

<svg xmlns="http://www.w3.org/2000/svg" width="16" height="16" viewBox="0 0 16 16"><path d="M12 6a3 3 0 0 1 3 3v1.169c.591.281 1 .883 1 1.581v2.5A1.75 1.75 0 0 1 14.25 16h-4.5A1.75 1.75 0 0 1 8 14.25v-2.5c0-.698.409-1.3 1-1.581V9a3 3 0 0 1 3-3Zm0 1.5A1.5 1.5 0 0 0 10.5 9v1h3V9A1.5 1.5 0 0 0 12 7.5ZM3.25 1A2.25 2.25 0 0 1 4 5.372v5.257a2.25 2.25 0 1 1-1.5 0V5.372A2.252 2.252 0 0 1 3.25 1Zm0 1.5a.75.75 0 1 0 0 1.5.75.75 0 0 0 0-1.5Zm0 9.5a.75.75 0 1 0 0 1.5.75.75 0 0 0 0-1.5ZM10 .854a.25.25 0 0 0-.427-.177L7.177 3.073a.251.251 0 0 0 0 .355l2.396 2.395A.25.25 0 0 0 10 5.646V.854Z"/><path d="M11.997 2.708A2.492 2.492 0 0 0 11 2.5h-1V4h1c.5 0 .891 0 .956.597a.735.735 0 0 0 .746.674.75.75 0 0 0 .746-.674c0-.097 0-.147-.066-.356 0 0-.041-.122-.073-.198a2.242 2.242 0 0 0-.209-.393 2.004 2.004 0 0 0-.327-.412l-.039-.036a2.78 2.78 0 0 0-.127-.114c-.01-.009-.019-.018-.03-.026a1.977 1.977 0 0 0-.172-.129l-.035-.023a3.087 3.087 0 0 0-.156-.095l-.047-.025a2.656 2.656 0 0 0-.17-.082Z"/></svg>
